symbols/web/lyrics/materialsymbolsoutlined/lyrics_wght200grad200_40px.svg

<svg xmlns="http://www.w3.org/2000/svg" height="40" width="40"><path d="M5.417 33.458V7.792q0-1.292.916-2.23.917-.937 2.25-.937h16.042q1.333 0 2.25.937.917.938.917 2.23v1.041q-.667.292-1.209.75-.541.459-.916 1.084V7.792q0-.459-.292-.75-.292-.292-.75-.292H8.583q-.458 0-.75.292-.291.291-.291.75v20.375l1.625-1.625h15.458q.458 0 .75-.292t.292-.708V21q.375.625.916 1.083.542.459 1.209.75v2.709q0 1.291-.917 2.208-.917.917-2.25.917H10.208Zm5.708-10.291h5.958v-2.125h-5.958Zm20.083-2.959q-1.833 0-3.125-1.27-1.291-1.271-1.291-3.105 0-1.833 1.27-3.125 1.271-1.291 3.146-1.291.709 0 1.188.208t1.062.708V2.958h5.625v2.125h-3.458v10.75q0 1.834-1.292 3.105-1.291 1.27-3.125 1.27Zm-20.083-2.5h10.958v-2.125H11.125Zm0-5.416h10.958v-2.167H11.125ZM7.542 28.167V6.75v19.792Z"/></svg>

<svg xmlns="http://www.w3.org/2000/svg" height="40" width="40"><path d="M7.542 26.542V7.792Q7.542 7.333 7.542 7.042Q7.542 6.75 7.542 6.75Q7.542 6.75 7.542 7.042Q7.542 7.333 7.542 7.792V10.667Q7.542 11.667 7.542 12.958Q7.542 14.25 7.542 15.833Q7.542 17.417 7.542 18.708Q7.542 20 7.542 21V25.542Q7.542 25.958 7.542 26.25Q7.542 26.542 7.542 26.542ZM5.417 33.458V7.792Q5.417 6.5 6.333 5.562Q7.25 4.625 8.583 4.625H24.625Q25.958 4.625 26.875 5.562Q27.792 6.5 27.792 7.792V8.833Q27.125 9.125 26.583 9.583Q26.042 10.042 25.667 10.667V7.792Q25.667 7.333 25.375 7.042Q25.083 6.75 24.625 6.75H8.583Q8.125 6.75 7.833 7.042Q7.542 7.333 7.542 7.792V26.542H24.625Q25.083 26.542 25.375 26.25Q25.667 25.958 25.667 25.542V21Q26.042 21.625 26.583 22.083Q27.125 22.542 27.792 22.833V25.542Q27.792 26.833 26.875 27.75Q25.958 28.667 24.625 28.667H10.208ZM11.125 23.167H17.083V21.042H11.125ZM31.208 20.208Q29.375 20.208 28.083 18.938Q26.792 17.667 26.792 15.833Q26.792 14 28.062 12.708Q29.333 11.417 31.208 11.417Q31.917 11.417 32.396 11.625Q32.875 11.833 33.458 12.333V2.958H39.083V5.083H35.625V15.833Q35.625 17.667 34.333 18.938Q33.042 20.208 31.208 20.208ZM11.125 17.708H22.083V15.583H11.125ZM11.125 12.292H22.083V10.125H11.125Z"/></svg>
